X:1
T:Singing Glory!
T:Lucy R. Minor, 1907
T:Singing Glory!
T:Public Domain
T:Public Domain
T:Public Domain
C:Lucy R. Minor, 1907
Z:Public Domain
%%score ( 1 2 ) ( 3 4 )
L:1/8
M:4/4
K:F
V:1 treble 
V:2 treble 
V:3 bass 
V:4 bass 
V:1
 C | C[CF][CF][CG] [FA]3 [GB] | [Ac][FA] F>[FG] [FA]3 [FA] | [EG][EG][EG][FA] [EG] [Ec]3 | %4
w: 1.~I’ve|thing in my heart that Je-|gave to me, It makes me|like sing- ing glo- ry all|
w: 2.~My|ior loosed my tongue that I|speak His praise; Since then I|been sing- ing glo- ry all|
w: 3.~My|ior took my feet from out|mi- ry clay; Since then I|been sing- ing glo- ry all|
w: 4.~O|ry heart and sad, O hea-|la- den soul, If you would|like sing- ing glo- ry all|
 [Fd][FA] [F=B]>[FG] [Ec]3 [A,C] | [A,C][CF][CF][CG] [FA]3 [GB] | [Ac][FA] [_EG]>[EF] [DB]3 [DB] | %7
w: the day; He found my cap-|tive soul and gave me li-|ber- ty, And now I feel|
w: the day; I love to tell|the lost of Je- sus and|His ways, And oh, it keeps|
w: the day; He placed them on|the Rock that shall not pass|a- way— I can- not keep|
w: the day, Just let the Sav-|ior in, and let Him take|con- trol; Then you will feel|
 [CA]>[FB] [Fc][Fd] [Fc] [FA]3 | (E2 C2) [CF]3 ||"^Refrain" [FA] | [Fc]>[Fc] [Fc][Fc] [Fd] [Fc]3 | %11
w: like sing- ing glo- ry! *||||
w: me sing- ing glo- ry! He|makes * the|grow|bright- er ev- ’ry pass- ing|
w: from sing- ing glo- ry! *||||
w: like sing- ing glo- ry! *||||
 [Fc]>[EB] [EB][^DA] [EB]3 [EB] | [EB]>[EB] [EB][EB] [Ec] [EB]3 | [FB]>[FA] [FA][F^G] [FA]3 C | %14
w: |||
w: day; He makes the bur- den|light- er all a- long the|way; His Word is my de-|
w: |||
w: |||
 C[CF] [CF]>[CG] [FA]3 [GB] | [Ac][FA] [_EG]>[EF] [DB]3 [DB] | [CA]>[FB] [Fc][Fd] [Fc] [FA]3 | %17
w: |||
w: His will I now o- bey,|all the time I’m sing- ing|glo- ry! * * * *|
w: |||
w: |||
 (E2 C2) [CF]3 |] %18
w: |
w: |
w: |
w: |
V:2
 C | C x7 | x2 F3/2 x9/2 | x8 | x8 | x8 | x8 | x8 | G4 x3 || x | x8 | x8 | x8 | x7 C | C x7 | x8 | %16
w: some-|sus|feel||||||||||||||
w: Sav-|might|have||||||path|||||light,|And||
w: Sav-|the|have||||||||||||||
w: wea-|vy|feel||||||||||||||
 x8 | G4 x3 |] %18
w: ||
w: ||
w: ||
w: ||
V:3
 [F,A,] | [F,A,][F,A,][F,A,][F,B,] [F,C]3 [F,C] | [F,C][F,C] [F,A,]>[F,B,] [F,C]3 [F,C] | %3
 [C,C][C,C][C,C][C,C] [C,C] [C,G,]3 | [G,=B,][G,B,] [G,D]>[G,B,] [C,C]3 [C,F,] | %5
 F,[F,A,][F,A,][F,B,] [F,C]3 [F,C] | [F,C][F,C] [A,,F,]>[A,,F,] [B,,F,]3 [B,,F,] | %7
 F,>[F,G,] [F,A,][F,B,] [F,A,] [F,C]3 | (C2 B,2) [F,,A,]3 || F, | %10
 [F,A,]>[F,A,] [F,A,][F,A,] [F,B,] [F,A,]3 | [C,A,]>[C,G,] [C,G,][C,^F,] [C,G,]3 [C,G,] | %12
 [C,G,]>[C,G,] [C,G,][C,G,] [C,A,] [C,G,]3 | [F,D]>[F,C] [F,C][F,=B,] [F,C]3 [F,A,] | %14
 [F,A,][F,A,] [F,A,]>[F,B,] [F,C]3 [F,C] | [F,C][F,C] [A,,F,]>[A,,F,] [B,,F,]3 [B,,F,] | %16
 F,>[F,G,] [F,A,][F,B,] [F,A,] [F,C]3 | (C2 B,2) [F,,A,]3 |] %18
V:4
 x | x8 | x8 | x8 | x8 | F, x7 | x8 | F,3/2 x13/2 | C,4 x3 || F, | x8 | x8 | x8 | x8 | x8 | x8 | %16
 F,3/2 x13/2 | C,4 x3 |] %18

